X:1
T:Jesus Loves Me
T:Text: Anna B. Warner (1820-1915), alt. Tune: William B. Bradbury (1816-1868)
T:77 77 Refrain [JESUS LOVES ME] www.hymnary.org/text/jesus_loves_me_this_i_know_for_the_bible
T:Jesus Loves Me
T:This hymn is in the public domain.  You may freely use this score for personal and congregational worship.  If you reproduce the score, please credit Hymnary.org as the source. 
T:This hymn is in the public domain.  You may freely use this score for personal and congregational worship.  If you reproduce the score, please credit Hymnary.org as the source. 
Z:This hymn is in the public domain.  You may freely use this score for personal and congregational worship.  If you reproduce the score, please credit Hymnary.org as the source.
%%score ( 1 2 ) ( 3 4 )
L:1/8
M:2/2
K:C
V:1 treble nm="Piano" snm="Pno."
V:2 treble 
V:3 bass nm="Piano" snm="Pno."
V:4 bass 
V:1
 [EG]2 [CE]2 [CE]2 [B,D]2 | [CE]2 [EG]2 [EG]4 | [FA]2 [FA]2 [Ac]2 [FA]2 | [FA]2 [EG]2 [EG]4 | %4
w: 3~Je- sus loves me!|He will stay|close be- side me|all the way;|
w: 1~Je- sus loves me,|this I know,|for the Bi- ble|tells me so!|
w: 2~Je- sus loves me,|he who died|hea- ven's gate to|o- pen wide;|
 [EG]2 [CE]2 [CE]2 [B,D]2 | [CE]2 [EG]2 [EG]4 | [FA]2 [FA]2 [EG]2 C2 | [CE]2 [B,D]2 C4 || %8
w: he's pre- pared a|home for me,|and some day his|face I'll see.|
w: Lit- tle ones to|him be- long:|they are weak, but|he is strong.|
w: he will wash a-|way my sin,|let his lit- tle|child come in.|
"^Refrain" [EG]4 [CE]2 [EG]2 | [FA]2 [Fc]6 | [EG]4 [CE]2 C2 | [CE]2 [B,D]6 | [CG]4 [CE]2 [EG]2 | %13
w: Yes, Je- sus|loves me!|Yes, Je- sus|loves me!|Yes, Je- sus|
w: |||||
w: |||||
 [FA]2 [Fc]4 [CA]2 | [CG]2 C2 [CE]2 [B,D]2 | [CC]8 |] %16
w: loves me! The|Bi- ble tells me|so.|
w: |||
w: |||
V:2
 x8 | x8 | x8 | x8 | x8 | x8 | x6 C2 | x4 C4 || x8 | x8 | x6 C2 | x8 | x8 | x8 | x2 C2 x4 | x8 |] %16
V:3
 [C,G,]2 [C,G,]2 [C,G,]2 [G,,G,]2 | [C,G,]2 [C,C]2 [C,C]4 | [F,C]2 [F,C]2 [F,C]2 [F,C]2 | %3
 [C,C]2 [C,C]2 [C,C]4 | [C,C]2 [C,G,]2 [C,G,]2 [G,,G,]2 | [C,G,]2 [C,C]2 [C,C]4 | %6
 [F,C]2 [F,C]2 [C,C]2 [E,G,]2 | G,2 [G,,F,]2 [C,E,]4 || [C,G,]4 [C,G,]2 [C,C]2 | [F,C]2 [F,A,]6 | %10
 [C,C]4 [C,G,]2 [E,G,]2 | G,2 G,6 | [C,E,]4 [C,G,]2 [C,C]2 | [F,C]2 [F,A,]4 [F,,F,]2 | %14
 [G,,E,]2 [A,,E,]2 [G,,G,]2 [G,,F,]2 | [C,E,]8 |] %16
V:4
 x8 | x8 | x8 | x8 | x8 | x8 | x8 | G,2 x6 || x8 | x8 | x8 | G,2 G,6 | x8 | x8 | x8 | x8 |] %16

